X:1
T:Title
%%score { ( 1 3 ) | ( 2 4 ) }
L:1/8
Q:1/4=90
M:6/8
K:F
V:1 treble nm="Grand Piano"
V:3 treble 
V:2 bass 
V:4 bass 
V:1
 c>dc cAF | [EG][FA]>G G F2 | [DF]>[DG][DF] [DF]DC | FA>A [Ec]3 | c>dc cAF | [EG][FA]>G GF[FA] | %6
w: Robert~Lowry * * * * *||||||
 [FB]>[Fc][Fd] cAF | [EG][EA]>[EG] F3 | c3 [FA]3 | [EG][Ec]>[GB] A F2 | c3 [FA]3 | %11
w: |||||
 [CEG][EGc]>[DF=B] .[CEc]3 | [Fc]3 [FA]3 | [CGB][CEG]>[CEc] [CGB][CFA][CFA] | %14
w: |||
 [B,FB]>[Fc][Fd] [Fc][CFA][A,CF] | [B,EG][CEA]>[B,EG] [A,F]3 |] %16
w: ||
V:2
 [F,A,F]>[F,B,F][F,A,F] [F,A,F][F,CF][F,A,C] | [C,C][C,C]>[C,B,C] [F,B,C] [F,A,C]2 | %2
 [B,,B,]>[B,,B,][B,,B,] [B,,B,][D,F,B,][F,A,] | [F,A,C][F,C]>[F,C] [C,G,]3 | %4
 [F,A,F]>[F,B,F][F,A,F] [F,A,F][F,CF][F,A,C] | [C,C][C,C]>[C,B,C] [F,B,C][F,A,C][_E,C] | %6
 [D,B,]>[C,A,][B,,B,] [F,A,F][F,CF][F,A,C] | [C,B,][C,C]>[C,B,] [F,A,]3 | F3 z3 | %9
 [C,C][C,C]>[C,C] [F,CF] [F,A,]2 | F3 z3 | G,G,>G, z2 B, | [F,A,]2 F, F,2 F, | C,C,>C, F,F,_E, | %14
 D,>[C,A,][B,,B,] [F,A,]F,F, | C,C,>C, F,3 |] %16
V:3
 x6 | x6 | x6 | x6 | x6 | x6 | x6 | x6 | z2 A, C2 C | x6 | z2 A, C2 C | x6 | z2 A, C2 C | x6 | x6 | %15
 x6 |] %16
V:4
 x6 | x6 | x6 | x6 | x6 | x6 | x6 | x6 | [F,A,]2 F, F,2 F, | x6 | [F,A,]2 F, F,2 F, | z3 C,3 | x6 | %13
 x6 | x6 | x6 |] %16

